!!!COM: Haydn, Franz Joseph
!!!OTL: String Quartet in F Minor
!!!OPS: Opus 55
!!!ONM: No. 2
!!!OMD: Presto
!!!OMV: 4
!!!SCT: H III:61
!!!SCA: Thematisch-bibliographisches Werkevererzeichnis (A. van Hoboken)
!!!YOR: Dover Edition; reprint of Eulenburg Edition
!!!ENC: Frances Bennion
!!!CDT: 1732/3/31/-1809/5/31/
!!!CNT: Oesterreich
!!!YEC: Copyright (c) 1994, 2000 Center for Computer Assisted Research in the Humanities
!!!YEM: Rights to all derivative editions reserved.
!!!YEM: Refer to licensing agreement for further details.
!!!YEN: United States of America
**kern	**kern	**kern	**kern
*k[b-]	*k[b-]	*k[b-]	*k[b-]
*F:	*F:	*F:	*F:
*clefF4	*clefC3	*clefF	*clefF
*M6/8	*M6/8	*M6/8	*M6/8
2r	2r	2r	2r
8r	8r	8r	8r
8r	8r	8r	8g#
=1	=1	=1	=1
8F	8A	8c	8a
4r	4r	4r	8a
.	.	.	8b
8F	8A	8a	8cc
4r	4r	4r	8cc
.	.	.	8cc#
=2	=2	=2	=2
8F	8B-	8d	8dd
8F	8B-	8d	16dd
.	.	.	16cc#
8F	8B-	8d	16dd
.	.	.	16b-
8F	8B-	8d	8g
4r	4r	4r	8r
.	.	.	8f#
=3	=3	=3	=3
8F	8B-	8d	8g
4r	4r	4r	8g
.	.	.	8a
8F	8B-	8d	8b-
4r	4r	4r	8b-
.	.	.	8b
=4	=4	=4	=4
8F	8A	8c	8cc
8F	8A	8c	16cc
.	.	.	16b
8F	8A	8c	16cc
.	.	.	16a
8F	8A	8c	8f
4r	4r	4r	8r
.	.	.	8ff
=5	=5	=5	=5
4C	4g	4b-	8ee
.	.	.	8ee
8r	8r	8r	8ccc
4D	4f	4a	8ff
.	.	.	8ff
8r	8r	8r	8ddd
=6	=6	=6	=6
8G	8d	8ff	8bb
8G	8d	16ff	16bb
.	.	16ee	16aa
8G	16d	16ff	16bb
.	16f	16dd	16gg
8c	8e	8cc	8ccc
4r	4r	8r	8r
.	.	8e	8g#
=7	=7	=7	=7
8r	8r	8f	8a
8F	8f	8r	8r
4r	4r	8g#	8b
.	.	8a	8cc
8F	8f	8r	8r
8r	8r	8a	8cc#
=8	=8	=8	=8
8r	8r	8b-	8dd
8F	8B-	8d	16dd
.	.	.	16cc#
8F	8B-	8d	16dd
.	.	.	16b-
8F	8B-	8d	8g
8F	8B-	8d	8r
8r	8r	8A	8f#
=9	=9	=9	=9
8r	8r	8B-	8g
8FF	8F	8r	8r
4r	4r	8f#	8a
.	.	8g	8b-
8FF	8F	8r	8r
8r	8r	8g#	8b
=10	=10	=10	=10
8r	8r	8a	8cc
8FF	8A	8c	16cc
.	.	.	16b
8FF	8A	8c	16cc
.	.	.	16a
8FF	8A	8c	8f
8FF	8A	8c	8r
8r	8r	8r	8ff
=11	=11	=11	=11
8C	8G	8b-	8ee
8C	8G	8b-	8ee
8r	8r	8r	8ccc
8D	8F	8a	8ff
8D	8F	8a	8ff
8r	8r	8r	8ddd
=12	=12	=12	=12
8G	8d	8ff	8bb
8G	8d	16ff	16bb
.	.	16ee	16aa
8G	16d	16ff	16bb
.	16f	16dd	16gg
8c	8e	8cc	8ccc
8r	4r	8r	8r
8c	.	8e	8cc
=13	=13	=13	=13
8B	4r	8f	8dd
8B	.	8f	8dd
8B-	8g	8g	8ee
8A	8f	8a	8ff
8A	8f	8a	8ff
8r	16f	8ff	8aa
.	16a	.	.
=14	=14	=14	=14
2r	8cc	8ee	8gg
.	16cc	16ee	16gg
.	16b	16ff	16aa
.	16cc	16ee	16gg
.	16b	16ff	16aa
.	8cc	8ee	8gg
8r	4r	8r	8r
8d	.	8f	8dd
=15	=15	=15	=15
8c#	4r	8g	8ee
8c#	.	8g	8ee
8c	8a	8a	8ff#
8B-	8g	8b-	8gg
8B-	8g	8b-	8gg
8r	16g	8gg	8bb-
.	16b-	.	.
=16	=16	=16	=16
4.r	8dd	8ff#	8aa
.	16dd	16ff#	16aa
.	16cc#	16gg	16bb-
.	16dd	16ff#	16aa
.	16cc#	16gg	16bb-
[4.d	8dd	8ff#	8aa
.	8r	8r	8r
.	8f#	8a	8ddd
=17	=17	=17	=17
2.d]	8g	8b-	8eee-
.	8g	8b-	8eee-
.	8e	8g	8ccc#
.	8f#	8a	8ddd
.	8f#	8a	8ddd
.	8a	8f#	8ccc
=18	=18	=18	=18
8e-	8g	8g	8bb-
8c	8e-	8a	8ccc
8d	8c	8f#	8aa
8G	8B-	8g	8gg
8r	8r	4r	4r
8F#	8A	.	.
=19	=19	=19	=19
8G	8B-	4r	4r
8G	8B-	.	.
4.r	4.r	8a	8cc#
.	.	8b-	8dd
.	.	8b-	8dd
8E	8G#	8r	8r
=20	=20	=20	=20
8F	8A	4r	4r
8F	8A	.	.
4.r	4.r	8g#	8b
.	.	8a	8cc
.	.	8a	8cc
8EE	8E	8g#	8gg#
=21	=21	=21	=21
8FF	8F	8a	8aa
8C	8c	8A	8a
8GG#	8G#	8b	8bb
8AA	8A	8cc	8ccc
8F	8f	8c	8cc
8AA	8A	8cc#	8ccc#
=22	=22	=22	=22
8BB-	8B-	8dd	8ddd
8D	8d	16dd	16ddd
.	.	16b-	16bb-
8F#	8f#	16dd	16ddd
.	.	16b-	16bb-
8G	8g	8g	8gg
8B-	8b-	8r	8r
8AA	8A	8f#	8ff#
=23	=23	=23	=23
8BB-	8B-	8g	8gg
8D	8d	8G	8g
8FF#	8F#	8a	8aa
8GG	8G	8b-	8bb-
8D	8d	8B-	8b-
8GG#	8G#	8b	8bb
=24	=24	=24	=24
8AA	8A	8cc	8ccc
8C	8c	16cc	16ccc
.	.	16a	16aa
8E	8e	16cc	16ccc
.	.	16a	16aa
8F	8f	8f	8ff
8A	8a	4r	8r
8r	8r	.	8ff
=25	=25	=25	=25
4C	4g	4b-	8ee
.	.	.	8ee
8r	8r	8r	8ccc
4D	4f	8a	8ff
.	.	8r	8ff
8BB-	8r	8b-	8ddd
=26	=26	=26	=26
8C	4.B-	8e	16ccc
.	.	.	16bb-
8C	.	8e	16aa
.	.	.	16gg
8C	.	8g	16ff
.	.	.	16ee
8FF	8A	8f	8ff
4r	4r	8r	8r
.	.	8f	8a
=27	=27	=27	=27
2r	2r	8g	8b-
.	.	8g	8b-
.	.	8f	8a
.	.	8c	8g
8r	8r	8c	8g
8F	8A	8r	8r
=28	=28	=28	=28
8G	8B-	2r	2r
8G	8B-	.	.
8F	8A	.	.
8C	8G	.	.
8C	8G	8r	8r
8c	8r	8ee	8ccc
=29	=29	=29	=29
8d	4r	8ff	8bb
8d	.	8ff	8bb
4e	4cc	4gg	4bb-
8f	8a	8cc	8aa
8B-	8b-	8dd	8gg
=30	=30	=30	=30
8c	8cc	8a	8ff
8c	8c	16a	16ff
.	.	16g	16ee
8c	8c	16b-	16gg
.	.	16g	16ee
8F	8f	8a	8ff
4r	4r	8r	8r
.	.	8f	8a
=31	=31	=31	=31
2r	2r	16g	16b-
.	.	16a	16cc
.	.	16b-	16dd
.	.	16a	16cc
.	.	16g	16b-
.	.	16f	16a
.	.	8c	8g
8r	8r	8c	8g
8F	8A	8r	8r
=32	=32	=32	=32
16G	16B-	2r	2r
16A	16c	.	.
16B-	16d	.	.
16A	16c	.	.
16G	16B-	.	.
16F	16A	.	.
8C	8G	.	.
8C	8G	8r	8r
8c	8r	8ee	8ccc
=33	=33	=33	=33
8d	4r	8ff	8bb
8d	.	8ff	8bb
4e	4cc	4gg	4bb-
8f	8a	8cc	8aa
8B-	8b-	8dd	8gg
=34	=34	=34	=34
8c	8cc	8a	8ff
8c	8c	16a	16ff
.	.	16g	16ee
8c	8c	16b-	16gg
.	.	16g	16ee
[4.F	4.f 4.c	4.f 4.a	16ff
.	.	.	16cc
.	.	.	16a
.	.	.	16aa
.	.	.	16ff
.	.	.	16cc
=35	=35	=35	=35
2.F_	4c 4e	4.b- 4.g	16gg
.	.	.	16ee
.	.	.	16cc
.	.	.	16bb-
.	8c	.	16gg
.	.	.	16ee
.	4.c 4.f	4.a 4.f	16ff
.	.	.	16cc
.	.	.	16a
.	.	.	16aa
.	.	.	16ff
.	.	.	16cc
=36	=36	=36	=36
2.F]	4c 4e	4.b- 4.g	16gg
.	.	.	16ee
.	.	.	16cc
.	.	.	16bb-
.	8c	.	16gg
.	.	.	16ee
.	8f	8a 8f	16aa
.	.	.	16ff
.	8a	8cc	16cc
.	.	.	16ccc
.	8a	8cc	16aa
.	.	.	16ff
=37	=37	=37	=37
4.E	4.g	2.cc	16gg
.	.	.	16ee
.	.	.	16cc
.	.	.	16ccc
.	.	.	16gg
.	.	.	16ee
4.D	4.a	.	16ff
.	.	.	16gg
.	.	.	16aa
.	.	.	16gg
.	.	.	16ff
.	.	.	16ee
=38	=38	=38	=38
4.G	4f	4.b	16dd
.	.	.	16cc
.	.	.	16b
.	.	.	16a
.	8d	.	16g
.	.	.	16f
4.C	8g	4.cc	16e
.	.	.	16g
.	8e	.	16cc
.	.	.	16ee
.	8c	.	16gg
.	.	.	16ee
=39	=39	=39	=39
4.E	4c	4.g	16cc
.	.	.	16g
.	.	.	16cc
.	.	.	16ee
.	8e	.	16gg
.	.	.	16ee
4F	4f	4.a	16dd
.	.	.	16ff
.	.	.	16aa
.	.	.	16ff
8F#	8f#	.	16dd
.	.	.	16cc
=40	=40	=40	=40
8G	8g	8d	16b
.	.	.	16dd
8D	8d	8B	16ff#
.	.	.	16gg
8BB	8B	8d	16dd
.	.	.	16b
8GG	8G	8g	8g
4r	4r	8r	8r
.	.	8e	8g#
=41	=41	=41	=41
2.r	4r	8f	8a
.	.	8f	8a
.	8d	8f	8b
.	8e	8g	8cc
.	8e	8g	8cc
.	8r	8b	8dd#
=42	=42	=42	=42
2.r	2r	8cc	8ee
.	.	8cc	8ee
.	.	8dd#	8ff#
.	.	8ee	8gg
.	8r	8ee	8gg
.	8e	[8cc	8gg#
=43	=43	=43	=43
2r	8f	8cc]	8aa
.	8f	8cc	8aa
.	8d#	4cc	8ff#
.	8e	.	8gg
8r	8e	8cc	8gg
8E	8G	8c	8ccc
=44	=44	=44	=44
2.F	2.A	4c	8bb
.	.	.	8aa
.	.	8c#	8gg
.	.	4.d	8ff
.	.	.	8ee
.	.	.	8dd
=45	=45	=45	=45
4.G	4.c	4e	16cc
.	.	.	16g
.	.	.	16cc
.	.	.	16ee
.	.	8c	16gg
.	.	.	16ee
4.GG	8d	8B	16ff
.	.	.	16dd
.	8f	8d	16b
.	.	.	16g
.	8B	8f	16f
.	.	.	16d
=46	=46	=46	=46
8C	8c	8e	16e
.	.	.	16g
8r	8r	8r	16b
.	.	.	16cc
8E	8e	8e	16e
.	.	.	16cc
8F	8f	8f	16f
.	.	.	16a
8r	8r	8r	16cc#
.	.	.	16dd
8F#	8f#	8f#	16f#
.	.	.	16dd
=47	=47	=47	=47
8G	8g	8g	16g
.	.	.	16b
8r	8r	8r	16dd#
.	.	.	16ee
8G#	8g#	8g#	16g#
.	.	.	16ee
8A	8a	8a	16a
.	.	.	16ff
8B	8b	8b	16b
.	.	.	16gg
8c	8cc	8cc	16cc
.	.	.	16aa
=48	=48	=48	=48
8d	8dd	8dd	16dd
.	.	.	16bb
8e	8ee	8ee	16ee
.	.	.	16ccc
8f	8ff	8ff	16ff
.	.	.	16ddd
8g	8cc	8ee	16gg
.	.	.	16eee
4r	4r	4r	16ccc
.	.	.	16gg
.	.	.	16ee
.	.	.	16gg
=49	=49	=49	=49
8g	8cc	8ee	16ccc
.	.	.	16eee
4r	4r	4r	16ccc
.	.	.	16gg
.	.	.	16ee
.	.	.	16gg
8g	8cc	8ee	16ccc
.	.	.	16eee
4r	8r	8r	16ccc
.	.	.	16gg
.	8cc	8ee	16ee
.	.	.	16cc
=50	=50	=50	=50
8GG	8dd	8ff	8G
8r	8r	8r	8r
8GG	8d	8f	8b
16CC	8c	8e	8cc
16EE	.	.	.
16GG	8C	8r	8r
16C	.	.	.
16CC	8r	8b	8dd#
16C	.	.	.
=51	=51	=51	=51
16CC	8c	8cc	8ee
16EE	.	.	.
16GG	8C	8r	8r
16C	.	.	.
16CC	8r	8b	8dd#
16C	.	.	.
16CC	8c	8cc	8ee
16EE	.	.	.
16GG	8C	8r	8r
16C	.	.	.
16CC	8r	8dd#	8ff#
16C	.	.	.
=52	=52	=52	=52
16CC	8c	8ee	8gg
16EE	.	.	.
16GG	8C	8r	8r
16C	.	.	.
16CC	8r	8dd#	8ff#
16C	.	.	.
16CC	8c	8ee	8gg
16EE	.	.	.
16GG	8C	8r	8r
16C	.	.	.
16CC	8r	8ff#	8aa
16C	.	.	.
=53	=53	=53	=53
16CC	8c	8gg	8bb-
16EE	.	.	.
16GG	8C	8r	8r
16C	.	.	.
16CC	8r	16ff#	16aa
16C	.	16aa	16ccc
16CC	8c	8gg	8bb-
16EE	.	.	.
16GG	8C	8r	8r
16C	.	.	.
16CC	8C	16ff#	16aa
16C	.	16aa	16ccc
=54	=54	=54	=54
8CC	8E	8gg	8bb-
2r	2r	2r	2r
8c	8r	8r	8r
=55	=55	=55	=55
8B	4r	2.r	2.r
8B	.	.	.
8B-	8g	.	.
8A	8f#	.	.
8A	8f#	.	.
8A-	8f	.	.
=56	=56	=56	=56
8G	8e	2r	4r
8G	8e	.	.
8F#	8e-	.	8cc
8G	8d	.	8b
8G	8d	8r	8b
8r	8r	8g	8b-
=57	=57	=57	=57
2.r	2.r	8f#	8a
.	.	8f#	8a
.	.	8f	8dd
.	.	8e	8cc#
.	.	8e	8cc#
.	.	8a	8cc
=58	=58	=58	=58
2r	4r	8g#	8b
.	.	8g#	8b
.	8e	8g#	8ee
.	8d	8a	8ff
8r	8d	8a	8ff
8B	8dd	8ff	8gg#
=59	=59	=59	=59
8c	8a	8ee	8aa
8c	8a	8ee	8aa
8c#	8b-	8ee	8gg
8d	8a	8dd	8ff
8d	8a	8dd	8ff
8r	8g	8dd	8bb-
=60	=60	=60	=60
2.r	8a	8cc#	8ee
.	8a	8cc#	8ee
.	4f#	4cc	4aa
.	8g	8b	8dd
.	8e	8b-	8gg
=61	=61	=61	=61
2.r	8f	8a	8cc
.	8d	8a-	8ff
.	8e-	8g	8b-
.	4c	4g	4ee-
.	8d	8f#	8a
=62	=62	=62	=62
2.r	8B	8f	8dd
.	8c	8e	8g
.	8A	8e-	8cc
.	8B-	8d	8f
.	8G	8d	8b-
.	8A	8c#	8e
=63	=63	=63	=63
2.r	4F#	4c	4a
.	8G	8B-	8d
.	4E	4c#	4g
.	8D	8d	8f
=64	=64	=64	=64
[2.AA	8A	8c#	16e
.	.	.	16c#
.	8c#	8e	16A
.	.	.	16g
.	8c#	8e	16e
.	.	.	16c#
.	8F	8d	16f
.	.	.	16d
.	8d	8f	16A
.	.	.	16a
.	8d	8f	16f
.	.	.	16d
=65	=65	=65	=65
2.AA_	4.c#	8e	16g
.	.	.	16e
.	.	8g	16c#
.	.	.	16b-
.	.	8g	16g
.	.	.	16e
.	8d	8f	16a
.	.	.	16f
.	8f	8a	16d
.	.	.	16dd
.	8f	8a	16a
.	.	.	16f
=66	=66	=66	=66
2.AA_	4.e	4.g	16cc#
.	.	.	16g
.	.	.	16e
.	.	.	16ee
.	.	.	16cc#
.	.	.	16a
.	4.d	4.f	16ff
.	.	.	16dd
.	.	.	16a
.	.	.	16aa
.	.	.	16ff
.	.	.	16dd
=67	=67	=67	=67
2.AA]	2.c#	2.e	16bb-
.	.	.	16gg
.	.	.	16ee
.	.	.	16gg
.	.	.	16ee
.	.	.	16cc#
.	.	.	16ee
.	.	.	16cc#
.	.	.	16g
.	.	.	16cc#
.	.	.	16g
.	.	.	16e
=68	=68	=68	=68
4D	2.d	8f	16d
.	.	.	16dd
.	.	8g	16e
.	.	.	16ee
8C	.	8a	16f#
.	.	.	16ff#
4BB-	.	8b-	16g
.	.	.	16gg
.	.	8dd	16g
.	.	.	16gg
8FF#	.	8cc	16a
.	.	.	16aa
=69	=69	=69	=69
4GG	4d	8b-	16b-
.	.	.	16bb-
.	.	8d	16b-
.	.	.	16bb-
8EE	8g	8b-	16cc#
.	.	.	16ccc#
8FF	8f	8a	16dd
.	.	.	16ddd
8EE	8g	8g	16ee
.	.	.	16eee
8DD	8a	8f	16ff
.	.	.	16fff
=70	=70	=70	=70
8CC#	8g	8e	8ggg
8r	8r	8r	8r
8c#	8a	8gg	8eee
8d	8d	8ff	8fff
8r	8r	8r	8r
8F	8d	8a	8dd
=71	=71	=71	=71
8G	8G	8b-	8ee
4r	4r	4r	4r
8A	8A	8g	8cc#
4r	4r	8r	8r
.	.	8g	8cc#
=72	=72	=72	=72
8D	16D	8f#	8cc
.	16F#	.	.
2r	16A	8r	8r
.	16d	.	.
.	16D	8ee-	8ff#
.	16d	.	.
.	16D	8cc	8aa
.	16F#	.	.
.	16A	8r	8r
.	16d	.	.
8r	16D	8ee-	8ff#
.	16d	.	.
=73	=73	=73	=73
2.r	16D	8cc	8aa
.	16F#	.	.
.	16A	8r	8r
.	16d	.	.
.	16D	8ee-	8ff#
.	16d	.	.
.	16D	8cc	8aa
.	16F#	.	.
.	16A	8r	8r
.	16d	.	.
.	16D	8f#	8cc
.	16d	.	.
=74	=74	=74	=74
16GG	8G	8f	8b
16BB	.	.	.
16D	8r	8r	8r
16G	.	.	.
16GG	8a-	8b	8ff
16G	.	.	.
16GG	8f	8dd	8b
16BB	.	.	.
16D	8r	8r	8r
16G	.	.	.
16GG	8a-	8b	8ff
16G	.	.	.
=75	=75	=75	=75
16GG	8f	8dd	8b
16BB	.	.	.
16D	8r	8r	8r
16G	.	.	.
16GG	8a-	8b	8ff
16G	.	.	.
16GG	8f	8dd	8b
16BB	.	.	.
16D	8r	8r	8r
16G	.	.	.
16GG	8d	8b	8ff
16G	.	.	.
=76	=76	=76	=76
16CC	8e	8b-	8ee
16EE	.	.	.
16GG	8r	8r	8r
16C	.	.	.
16CC	8b-	8dd-	8ee
16C	.	.	.
16CC	8e	8b-	8gg
16EE	.	.	.
16GG	8r	8r	8r
16C	.	.	.
16CC	8g	8b-	8gg
16C	.	.	.
=77	=77	=77	=77
4CC	8e	8g	8bb-
.	2r	2r	2r
2r	.	.	.
.	8r	8r	8g#
=78	=78	=78	=78
8F	8A	8c	8a
4r	4r	4r	8a
.	.	.	8b
8F	8A	8a	8cc
4r	4r	4r	8cc
.	.	.	8cc#
=79	=79	=79	=79
8F	8B-	8d	8dd
8F	8B-	8d	16dd
.	.	.	16cc#
8F	8B-	8d	16dd
.	.	.	16b-
8F	8B-	8d	8g
4r	4r	4r	8r
.	.	.	8f#
=80	=80	=80	=80
8F	8B-	8d	8g
4r	4r	4r	8g
.	.	.	8a
8F	8B-	8d	8b-
4r	4r	4r	8b-
.	.	.	8b
=81	=81	=81	=81
8F	8A	8c	8cc
8F	8A	8c	16cc
.	.	.	16b
8F	8A	8c	16cc
.	.	.	16a
8F	8A	8c	8f
4r	4r	4r	8r
.	.	.	8ff
=82	=82	=82	=82
4C	4g	4b-	8ee
.	.	.	8ee
8r	8r	8r	8ccc
4D	4f	4a	8ff
.	.	.	8ff
8r	8r	8r	8ddd
=83	=83	=83	=83
8G	8d	8ff	8bb
8G	8d	16ff	16bb
.	.	16ee	16aa
8G	16d	16ff	16bb
.	16f	16dd	16gg
8c	8e	8cc	8ccc
8r	4r	8r	8r
8c	.	8e	8cc
=84	=84	=84	=84
8B	4r	8f	8dd
8B	.	8f	8dd
8B-	8g	8g	8ee
8A	8f	8a	8ff
8A	8f	8a	8ff
8r	16f	8ff	8aa
.	16a	.	.
=85	=85	=85	=85
2.r	8cc	8ee	8gg
.	16cc	16ee	16gg
.	16b	16ff	16aa
.	16cc	16ee	16gg
.	16b	16ff	16aa
.	8cc	8ee	8gg
.	8r	8r	8r
.	16c	8gg	8bb-
.	16e	.	.
=86	=86	=86	=86
2r	8f	8ff	8aa
.	8a	16ff	16aa
.	.	16gg	16bb-
.	8cc	16ff	16aa
.	.	16gg	16bb-
.	8a	8ff	8aa
8r	8f	8r	8r
8B-	8r	8ff	8ddd
=87	=87	=87	=87
8c	4r	8ee	8gg
8c	.	8ee	8gg
4A	4f	4ee-	4ccc
8B-	8b-	8dd	8ff
8G	8g	8dd	8bb-
=88	=88	=88	=88
8A	8a	8cc#	8ee
8F#	8d	8cc	8aa
8G	8d	8b	8dd
4E	4c	4b-	4gg
8F	8f	8a	8cc
=89	=89	=89	=89
8D	8B-	8a-	8ff
8E-	8e-	8g	8b-
8C	8c	8g	8ee-
8D	8d	8f#	8a
8BB	8g	8f	8dd
8C	8g	8e	8g
=90	=90	=90	=90
4AA	4.f	4e-	4cc
8BB-	.	8d	8f
4GG	8g	4d-	4b-
.	8G	.	.
8FF	8F	8A-	8d-
=91	=91	=91	=91
4EE	8E	8G	8c
.	8c	8g	8b-
8FF	8c	8f	8a
4BB-	8d	8d	8g
.	8G	8dd	8bb-
8C	8G	8b-	8ee
=92	=92	=92	=92
[2.F	8A	4.f 4.a	16ff
.	.	.	16cc
.	8c	.	16a
.	.	.	16aa
.	8c	.	16ff
.	.	.	16cc
.	4e 4c	4.b- 4.g	16gg
.	.	.	16ee
.	.	.	16cc
.	.	.	16bb-
.	8c	.	16gg
.	.	.	16ee
=93	=93	=93	=93
2.F_	4.f 4.c	4.a 4.f	16ff
.	.	.	16cc
.	.	.	16a
.	.	.	16aa
.	.	.	16ff
.	.	.	16cc
.	4.e 4.c	4.b- 4.g	16gg
.	.	.	16ee
.	.	.	16cc
.	.	.	16bb-
.	.	.	16gg
.	.	.	16ee
=94	=94	=94	=94
2.F_	4.c	4.a 4.e-	16aa
.	.	.	16ff
.	.	.	16cc
.	.	.	16ccc
.	.	.	16aa
.	.	.	16ff
.	4.d	4.b- 4.d	16bb-
.	.	.	16ff
.	.	.	16dd
.	.	.	16ddd
.	.	.	16bb-
.	.	.	16ff
=95	=95	=95	=95
4.F]	4.A	4.ee-	16ccc
.	.	.	16aa
.	.	.	16ff
.	.	.	16eee-
.	.	.	16ccc
.	.	.	16aa
4.BB-	4.B-	8dd	16ddd
.	.	.	16ccc
.	.	16dd	16bb-
.	.	16cc	16aa
.	.	16b-	16gg
.	.	16a	16ff
=96	=96	=96	=96
16C	8c	8g	8ee
16E	.	.	.
16G	8c	8e	8cc
16c	.	.	.
16G	8c	8e	8cc
16E	.	.	.
8C	8c	8e	8cc
4r	8r	8r	4r
.	8A	8c#	.
=97	=97	=97	=97
4r	8B-	8d	2r
.	8B-	8d	.
8G	8B-	8e	.
8A	8c	8f	.
8A	8c	8f	8r
8r	8r	8e	8g#
=98	=98	=98	=98
2.r	2r	8f	8a
.	.	8f	8a
.	.	8g#	8b
.	.	8a	8cc
.	8r	8a	8cc
.	8A	[8f	8cc#
=99	=99	=99	=99
2r	8B-	8f]	8dd
.	8B-	8f	8dd
.	8G#	4f	8b
.	8A	.	8cc
8r	8A	8f	8cc
8AA	8F	8c	8ff
=100	=100	=100	=100
2.BB-	4F	2.d	8ee
.	.	.	8dd
.	8F#	.	8cc
.	4.G	.	8b-
.	.	.	8a
.	.	.	8g
=101	=101	=101	=101
4.C	8A	8A	16f
.	.	.	16c
.	8f	8a	16f
.	.	.	16a
.	8f	8a	16cc
.	.	.	16a
4.CC	8e	8g	16b-
.	.	.	16g
.	8g	8b-	16e
.	.	.	16c
.	8B-	8e	16B-
.	.	.	16G
=102	=102	=102	=102
8FF	8A	8f	16A
.	.	.	16c
8r	8r	8r	16e
.	.	.	16f
8AA	8A	8A	16A
.	.	.	16f
8BB-	8B-	8B-	16B-
.	.	.	16d
8r	8r	8r	16f#
.	.	.	16g
8BB	8B	8B	16B
.	.	.	16g
=103	=103	=103	=103
8C	8c	8c	16c
.	.	.	16e
8r	8r	8r	16g#
.	.	.	16a
8C#	8c#	8c#	16c#
.	.	.	16a
8D	8d	8d	16d
.	.	.	16b-
8E	8e	8e	16e
.	.	.	16cc
8F	8f	8f	16f
.	.	.	16dd
=104	=104	=104	=104
8G	8g	8g	16g
.	.	.	16ee
8A	8a	8a	16a
.	.	.	16ff
8B-	8b-	8b-	16b-
.	.	.	16gg
8c	8f	8a	16cc
.	.	.	16aa
4r	4r	4r	16ff
.	.	.	16cc
.	.	.	16a
.	.	.	16cc
=105	=105	=105	=105
8c	8f	8a	16ff
.	.	.	16aa
4r	4r	4r	16ff
.	.	.	16cc
.	.	.	16a
.	.	.	16cc
8c	8f	8a	16ff
.	.	.	16aa
4r	8r	8r	16ff
.	.	.	16cc
.	8f	8a	16a
.	.	.	16f
=106	=106	=106	=106
8C	8g	8b-	8c
8r	8r	8r	8r
8C	8G	8B-	8e
8FF	8F	8A	8f
4r	4r	8r	8r
.	.	8f	8a
=107	=107	=107	=107
2r	2r	8g	8b-
.	.	8g	8b-
.	.	8f	8a
.	.	8c	8g
8r	8r	8c	8g
8F	8A	8r	16cc
.	.	.	16ccc
=108	=108	=108	=108
8G	8B-	2r	16cc
.	.	.	16ccc
8G	8B-	.	16cc
.	.	.	16ccc
8F	8A	.	16cc
.	.	.	16ccc
8C	8G	.	16cc
.	.	.	16ccc
8C	8G	8r	16cc
.	.	.	16ccc
8c	8r	8ee	16cc
.	.	.	16ccc
=109	=109	=109	=109
8d	4r	8ff	16b
.	.	.	16bb
8d	.	8ff	16b
.	.	.	16bb
8e	4cc	8gg	16b-
.	.	.	16bb-
8f	.	8cc	16a
.	.	.	16aa
8f	8a	8cc	16a
.	.	.	16aa
8B-	8b-	8dd	16b-
.	.	.	16gg
=110	=110	=110	=110
8c	8f	8a	16a
.	.	.	16cc
8C	8f	16a	16ff
.	.	16cc	16aa
8C	16g	16b-	16gg
.	16b-	16g	16ee
8F	8a	8a	8ff
4r	4r	8r	8r
.	.	8f	8a
=111	=111	=111	=111
2r	2r	16g	16b-
.	.	16a	16cc
.	.	16b-	16dd
.	.	16a	16cc
.	.	16g	16b-
.	.	16f	16a
.	.	8c	8g
8r	8r	8c	8g
8F	8A	8r	16cc
.	.	.	16ccc
=112	=112	=112	=112
16G	16B-	2r	16cc
16A	16c	.	16ccc
16B-	16d	.	16cc
16A	16c	.	16ccc
16G	16B-	.	16cc
16F	16A	.	16ccc
8C	8G	.	16cc
.	.	.	16ccc
8C	8G	8r	16cc
.	.	.	16ccc
8c	8r	8ee	16cc
.	.	.	16ccc
=113	=113	=113	=113
8d	4r	8ff	16b
.	.	.	16bb
8d	.	8ff	16b
.	.	.	16bb
8e	4cc	8gg	16b-
.	.	.	16bb-
8f	.	8cc	16a
.	.	.	16aa
8f	8a	8cc	16a
.	.	.	16aa
8B-	8b-	8dd	16b-
.	.	.	16gg
=114	=114	=114	=114
8c	8f	8a	16a
.	.	.	16cc
8C	8f	16a	16ff
.	.	16cc	16aa
8C	16g	16b-	16gg
.	16b-	16g	16ee
8F	8a	8f	8ff
8FF	8F	8r	8r
8r	8r	8dd	8ff
=115	=115	=115	=115
2.r	8r	8cc	8ee
.	8F	8r	8r
.	4r	8b-	8dd
.	.	8a	8cc
.	8F	8r	8r
.	8r	8g#	8b
=116	=116	=116	=116
2.r	8r	8a	8cc
.	8F	16a	16cc
.	.	16g#	16b
.	8F	16a	16cc
.	.	16g#	16b
.	8F	8a	8cc
.	8f	8r	8r
.	8f	8d	8b-
=117	=117	=117	=117
8r	8e	8c	8a
8FF	8r	8r	8r
4r	8d	8B-	8g
.	8c	8A	8f
8FF	8r	8r	8r
8r	8B-	8G	8e
=118	=118	=118	=118
8r	8A	8A	8f
16FF	8c	8A	8f
16EE	.	.	.
16FF	8A	8A	8f
16EE	.	.	.
8FF	8F	8A	8f
4r	4r	4r	4r
==	==	==	==
*-	*-	*-	*-
!!!RWG1: This file contains only pitch and duration data.
!!!RWG2: Transposing instruments are not transposed.
!!!RWG3: Spines may have incompatible meters.
!!!RWG4: Durations of rests and tied notes may be interpreted.
!!!RWG: Key is interpreted using the Humdrum key tool.
!!!GTL: 6 Quators ("Tost I + II")
!!!OPT: The Razor
!!!AFT: stage1
!!!END: 1997/04/15
!!!KEY: 2620770311
!!!EMD: Converted from MuseData to Humdrum Dec 16, 2000, by Andreas Kornstaedt using muse2kern.
!!!EMD: Manual editing by Craig Sapp, Nov 2001
